static/images/mobile_step_01.svg

<svg width="93" height="137" viewBox="0 0 93 137" fill="none" xmlns="http://www.w3.org/2000/svg">
<g filter="url(#filter0_d_966_5086)">
<circle cx="47" cy="130.5" r="5" transform="rotate(180 47 130.5)" fill="#2BB9B8"/>
</g>
<circle cx="46.5" cy="46.5" r="37.5" transform="rotate(180 46.5 46.5)" fill="#EEF3F4"/>
<path d="M0 46.5C0 20.8188 20.8188 0 46.5 0C72.1812 0 93 20.8188 93 46.5C93 72.1812 72.1812 93 46.5 93C20.8188 93 0 72.1812 0 46.5ZM90.1519 46.5C90.1519 22.3917 70.6083 2.8481 46.5 2.8481C22.3917 2.8481 2.8481 22.3917 2.8481 46.5C2.8481 70.6083 22.3917 90.1519 46.5 90.1519C70.6083 90.1519 90.1519 70.6083 90.1519 46.5Z" fill="#2BB9B8"/>
<g filter="url(#filter1_d_966_5086)">
<circle cx="47" cy="46" r="30" transform="rotate(180 47 46)" fill="#2BB9B8"/>
</g>
<path d="M38.0367 36.0859C37.4955 36.0859 37.0117 36.0159 36.5852 35.8759C36.1586 35.7358 35.7862 35.5353 35.4679 35.2743L35.7544 34.644C35.9772 34.8095 36.2 34.9496 36.4228 35.0642C36.652 35.1724 36.8971 35.2552 37.1581 35.3125C37.4192 35.3634 37.712 35.3888 38.0367 35.3888C38.6033 35.3888 39.0234 35.2838 39.2972 35.0737C39.5709 34.8636 39.7078 34.5835 39.7078 34.2334C39.7078 33.9342 39.6123 33.705 39.4213 33.5458C39.2303 33.3867 38.8961 33.2594 38.4186 33.1639L37.416 32.9633C36.7985 32.836 36.3369 32.6291 36.0313 32.3426C35.7321 32.0561 35.5825 31.6678 35.5825 31.1776C35.5825 30.7765 35.6844 30.4264 35.8881 30.1272C36.0982 29.828 36.391 29.5956 36.7666 29.4301C37.1422 29.2646 37.5783 29.1818 38.0749 29.1818C38.5523 29.1818 38.9884 29.255 39.3831 29.4014C39.7778 29.5415 40.1152 29.7484 40.3954 30.0221L40.1184 30.6333C39.8192 30.3659 39.5041 30.1749 39.173 30.0603C38.8484 29.9394 38.4791 29.8789 38.0653 29.8789C37.5433 29.8789 37.1295 29.9935 36.8239 30.2227C36.5247 30.4455 36.3751 30.7511 36.3751 31.1394C36.3751 31.4514 36.4706 31.6965 36.6616 31.8747C36.8526 32.0466 37.1677 32.1771 37.607 32.2662L38.6192 32.4668C39.2685 32.6005 39.746 32.801 40.0516 33.0684C40.3572 33.3357 40.5099 33.7114 40.5099 34.1952C40.5099 34.5644 40.4081 34.8923 40.2044 35.1788C40.007 35.4652 39.7237 35.6881 39.3545 35.8472C38.9852 36.0064 38.546 36.0859 38.0367 36.0859ZM43.283 36V29.9362H40.9053V29.2677H46.4439V29.9362H44.0756V36H43.283ZM47.4133 36V29.2677H51.7104V29.9171H48.1868V32.2567H51.5004V32.9156H48.1868V35.3411H51.7104V36H47.4133ZM53.0272 36V29.2677H55.7679C56.4745 29.2677 57.0188 29.4396 57.4008 29.7834C57.7828 30.1208 57.9737 30.5919 57.9737 31.1967C57.9737 31.7888 57.7828 32.2599 57.4008 32.61C57.0188 32.9538 56.4745 33.1257 55.7679 33.1257H53.8198V36H53.0272ZM53.8198 32.4668H55.6915C56.1817 32.4668 56.5509 32.3554 56.7992 32.1325C57.0538 31.9097 57.1812 31.5978 57.1812 31.1967C57.1812 30.7893 57.0538 30.4741 56.7992 30.2513C56.5509 30.0285 56.1817 29.9171 55.6915 29.9171H53.8198V32.4668Z" fill="white"/>
<path d="M33.2656 60.9375C32.8906 59.8958 32.625 58.8438 32.4688 57.7812C32.3229 56.7188 32.25 55.599 32.25 54.4219C32.25 53.2344 32.3229 52.0938 32.4688 51C32.6146 49.8958 32.875 48.8021 33.25 47.7188C33.625 46.625 34.0938 45.6823 34.6562 44.8906C35.2292 44.099 35.974 43.4583 36.8906 42.9688C37.8177 42.4688 38.8542 42.2188 40 42.2188C41.1458 42.2188 42.1562 42.4635 43.0312 42.9531C43.9062 43.4427 44.6146 44.0833 45.1562 44.875C45.7083 45.6667 46.1667 46.6042 46.5312 47.6875C47.1667 49.6354 47.4844 51.8906 47.4844 54.4531C47.4844 60.2552 46.0104 63.9271 43.0625 65.4688C42.1771 65.9375 41.1615 66.1719 40.0156 66.1719C38.8802 66.1719 37.8542 65.9375 36.9375 65.4688C36.0312 65 35.2865 64.3906 34.7031 63.6406C34.1302 62.8802 33.651 61.9792 33.2656 60.9375ZM34.5625 54.4531C34.5625 58.1094 35.1146 60.7292 36.2188 62.3125C37.0938 63.5938 38.3698 64.2344 40.0469 64.2344C41.8906 64.2344 43.1979 63.526 43.9688 62.1094C44.4583 61.2135 44.7656 60.2604 44.8906 59.25C45.0781 57.7396 45.1719 56.3281 45.1719 55.0156C45.1719 53.7031 45.1458 52.6562 45.0938 51.875C45.0417 51.0938 44.9479 50.2969 44.8125 49.4844C44.6875 48.6719 44.4948 47.9583 44.2344 47.3438C43.9844 46.7292 43.6771 46.1771 43.3125 45.6875C42.5625 44.6667 41.474 44.1562 40.0469 44.1562C36.3906 44.1562 34.5625 47.5885 34.5625 54.4531ZM50.4062 44.125L55.5156 42.3281H57.1719V63.7812H60.6094V66H51.0469V63.7812H54.8594V44.875L51.1562 45.9531L50.4062 44.125Z" fill="white"/>
<line x1="47" y1="93" x2="47" y2="127" stroke="#2BB9B8" stroke-width="2"/>
<defs>
<filter id="filter0_d_966_5086" x="41.3333" y="125.5" width="11.3333" height="11.3333" filterUnits="userSpaceOnUse" color-interpolation-filters="sRGB">
<feFlood flood-opacity="0" result="BackgroundImageFix"/>
<feColorMatrix in="SourceAlpha" type="matrix" values="0 0 0 0 0 0 0 0 0 0 0 0 0 0 0 0 0 0 127 0" result="hardAlpha"/>
<feOffset dy="0.666667"/>
<feGaussianBlur stdDeviation="0.333333"/>
<feComposite in2="hardAlpha" operator="out"/>
<feColorMatrix type="matrix" values="0 0 0 0 0 0 0 0 0 0 0 0 0 0 0 0 0 0 0.25 0"/>
<feBlend mode="normal" in2="BackgroundImageFix" result="effect1_dropShadow_966_5086"/>
<feBlend mode="normal" in="SourceGraphic" in2="effect1_dropShadow_966_5086" result="shape"/>
</filter>
<filter id="filter1_d_966_5086" x="13" y="16" width="68" height="68" filterUnits="userSpaceOnUse" color-interpolation-filters="sRGB">
<feFlood flood-opacity="0" result="BackgroundImageFix"/>
<feColorMatrix in="SourceAlpha" type="matrix" values="0 0 0 0 0 0 0 0 0 0 0 0 0 0 0 0 0 0 127 0" result="hardAlpha"/>
<feOffset dy="4"/>
<feGaussianBlur stdDeviation="2"/>
<feComposite in2="hardAlpha" operator="out"/>
<feColorMatrix type="matrix" values="0 0 0 0 0 0 0 0 0 0 0 0 0 0 0 0 0 0 0.25 0"/>
<feBlend mode="normal" in2="BackgroundImageFix" result="effect1_dropShadow_966_5086"/>
<feBlend mode="normal" in="SourceGraphic" in2="effect1_dropShadow_966_5086" result="shape"/>
</filter>
</defs>
</svg>

<svg width="93" height="137" fill="none" xmlns="http://www.w3.org/2000/svg"><g filter="url(#a)"><circle cx="47" cy="130.5" r="5" transform="rotate(180 47 130.5)" fill="#2BB9B8"/></g><circle cx="46.5" cy="46.5" r="37.5" transform="rotate(180 46.5 46.5)" fill="#EEF3F4"/><path d="M0 46.5a46.5 46.5 0 1 1 93 0 46.5 46.5 0 0 1-93 0Zm90.2 0a43.7 43.7 0 1 0-87.4 0 43.7 43.7 0 0 0 87.4 0Z" fill="#2BB9B8"/><g filter="url(#b)"><circle cx="47" cy="46" r="30" transform="rotate(180 47 46)" fill="#2BB9B8"/></g><path d="m38 36-1.4-.1-1.1-.6.3-.7.6.5a3.4 3.4 0 0 0 1.6.3c.6 0 1-.1 1.3-.3.3-.2.4-.5.4-.9 0-.3 0-.5-.3-.7l-1-.3-1-.2-1.4-.7c-.3-.2-.4-.6-.4-1.1 0-.4 0-.8.3-1 .2-.4.5-.6.9-.8l1.3-.2c.5 0 .9 0 1.3.2.4.1.7.3 1 .6l-.3.6-1-.5c-.3-.2-.6-.2-1-.2a2 2 0 0 0-1.3.3 1 1 0 0 0-.4 1c0 .3 0 .5.3.7l1 .4 1 .2c.6.1 1 .3 1.4.6.3.2.4.6.4 1.1 0 .4 0 .7-.3 1a2 2 0 0 1-.8.6c-.4.2-.9.3-1.4.3Zm5.3 0v-6h-2.4v-.7h5.5v.6h-2.3V36h-.8Zm4.1 0v-6.7h4.3v.6h-3.5v2.4h3.3v.6h-3.3v2.4h3.5v.7h-4.3Zm5.6 0v-6.7h2.8c.7 0 1.2.1 1.6.5.4.3.6.8.6 1.4 0 .6-.2 1-.6 1.4-.4.4-1 .5-1.6.5h-2V36H53Zm.8-3.5h1.9c.5 0 .9-.1 1.1-.4.3-.2.4-.5.4-.9s-.1-.7-.4-1c-.2-.2-.6-.3-1.1-.3h-1.9v2.6ZM33.3 61a16.3 16.3 0 0 1-1-6.6 25.9 25.9 0 0 1 1-6.7c.3-1 .8-2 1.4-2.8a6.5 6.5 0 0 1 5.3-2.7 6.1 6.1 0 0 1 5.2 2.7c.5.8 1 1.7 1.3 2.8.7 2 1 4.2 1 6.8 0 5.8-1.5 9.4-4.4 11-1 .4-2 .7-3 .7a6.7 6.7 0 0 1-5.4-2.6c-.6-.7-1-1.6-1.4-2.7Zm1.3-6.5c0 3.6.5 6.2 1.6 7.8.9 1.3 2.2 2 3.8 2 1.9 0 3.2-.8 4-2.2a8 8 0 0 0 .9-2.9 34.5 34.5 0 0 0-.7-11.9c-.2-.6-.5-1.1-.9-1.6-.7-1-1.8-1.5-3.3-1.5-3.6 0-5.4 3.4-5.4 10.3ZM50.4 44l5.1-1.8h1.7v21.5h3.4V66H51v-2.2H55v-19L51.2 46l-.8-1.9Z" fill="#fff"/><path stroke="#2BB9B8" stroke-width="2" d="M47 93v34"/><defs><filter id="a" x="41.3" y="125.5" width="11.3" height="11.3" filterUnits="userSpaceOnUse" color-interpolation-filters="sRGB"><feFlood flood-opacity="0" result="BackgroundImageFix"/><feColorMatrix in="SourceAlpha" values="0 0 0 0 0 0 0 0 0 0 0 0 0 0 0 0 0 0 127 0" result="hardAlpha"/><feOffset dy=".7"/><feGaussianBlur stdDeviation=".3"/><feComposite in2="hardAlpha" operator="out"/><feColorMatrix values="0 0 0 0 0 0 0 0 0 0 0 0 0 0 0 0 0 0 0.25 0"/><feBlend in2="BackgroundImageFix" result="effect1_dropShadow_966_5086"/><feBlend in="SourceGraphic" in2="effect1_dropShadow_966_5086" result="shape"/></filter><filter id="b" x="13" y="16" width="68" height="68" filterUnits="userSpaceOnUse" color-interpolation-filters="sRGB"><feFlood flood-opacity="0" result="BackgroundImageFix"/><feColorMatrix in="SourceAlpha" values="0 0 0 0 0 0 0 0 0 0 0 0 0 0 0 0 0 0 127 0" result="hardAlpha"/><feOffset dy="4"/><feGaussianBlur stdDeviation="2"/><feComposite in2="hardAlpha" operator="out"/><feColorMatrix values="0 0 0 0 0 0 0 0 0 0 0 0 0 0 0 0 0 0 0.25 0"/><feBlend in2="BackgroundImageFix" result="effect1_dropShadow_966_5086"/><feBlend in="SourceGraphic" in2="effect1_dropShadow_966_5086" result="shape"/></filter></defs></svg>
